X:0016
T:Quick Step Old Buffs.
M:2/4
L:1/8
Q:1/4=132
I: :: ||
%%  D  E ^F  G  A  B  c ^c  d  e ^f  g
Z:Jack Campin * www.campin.me.uk * 2009
K:D
g|fdec | dBAG        |FA dF| E2        E
g|fdec | dBAG        |Fd Ec| d2        D:|
G|FAA=c|(B/c/d/B/) G2|Eeed |(c/d/e/c/) A
g|fdec | dBAG        |Fd Ec| d2        D:|

